!! 00000] TT[WS
!!!OTL: Ting fang
!!!ARE: Asia, China, Shanxi Jingle
!! Ethnic Group: Han
!! WII, 126 (1)
!!!SCT: J0593
!!!YEM: Copyright 1995, estate of Helmut Schaffrath.
**kern
*ICvox
*Ivox
*M4/4
*k[f#c#g#]
*A:
{4e
8e
8f#
8e
8f#
=1
4.e
8f#
2e
=2
8b
8ee
8cc#
8b
2a
=3
8ee
4ee
8cc#
8b
8cc#
8a
8f#
=4
4.e
8f#
2e}
=5
{4e
8e
8c#
4B
4B
=6
8b
8ee
8cc#
8b
2a
=7
8ee
8ee
8ee
8cc#
8b
8ee
8a
8f#
=8
4.e
8f#
2e}
=9
{4e
8e
8c#
4B
8e
8B
=10
8b
8cc#
8a
8b
4e
8f#
8e
=11
8c#
4c#
8e
8c#
8e
8c#
8A
=12
4.B
8c#
2B}
=13
{8b
8ee
8cc#
8b
2a
=14
8ee
4ee
8cc#
8b
8ee
8a
8f#
=15
4.e
8f#
2e}
==
!!!AGN: Xiaodiao. Qingge
!!!ONB: ESAC (Essen Associative Code) Database: CHINA
!!!AMT: simple quadruple
!!!AIN: vox
!!!EED: Helmut Schaffrath
!!!EEV: 1.0
*-
